X:1
T:Eric Stein
M:C|
L:1/8
Q:80
C:Terry Tully
S:Hornpipe
K:HP
|: e|
{g}A{GAG}A{g}e3/2f/2|
{g}e/2d/2{g}B/2d/2{g}eg/2e/2|
{Gdc}dG{g}G/2{d}G/2g/2e/2|  !
{g}d/2B/2{g}G/2A/2{gBd}B{g}e/2d/2|
{g}e/2A/2{g}A/2{d}A/2{ag}af/2a/2|
g/2e/2{g}d/2e/2{gf}g3/2e/2|  !
{g}c/2d/2{g}d/2B/2{g}G/2A/2{g}B/2{d}G/2|
{g}A2{GAG}A:| [|
{g}e/2g/2|  !
{ag}a{AGAG}Aa/2A/2{d}A/2a/2|
g/2e/2{g}d/2e/2{gf}g3/2e/2|
{Gdc}dG{g}G/2{d}G/2g/2e/2|  !
{g}d/2B/2{g}G/2A/2{gBd}B{g}e/2g/2|
{ag}a{AGAG}Aa/2A/2{d}A/2a/2|
g/2e/2{g}d/2e/2{gf}g3/2e/2|  !
{g}c/2d/2{g}d/2B/2{g}G/2A/2{g}B/2{d}G/2|
{g}A2{GAG}A{g}e/2g/2|
{ag}a{AGAG}Aa/2A/2{d}A/2a/2|  !
g/2e/2{g}d/2e/2{gf}g3/2e/2|
{Gdc}dG{g}G/2{d}G/2g-|
g/2e/2{g}f/2d/2{g}e/2d/2{g}B/2d/2|  !
{g}e/2A/2{g}A/2{d}A/2{ag}af/2a/2|
g/2e/2{g}d/2e/2{gf}g3/2e/2|
{g}c/2d/2{g}d/2B/2{g}G/2A/2{g}B/2{d}G/2|  !
{g}A2{GAG}A|]

